src/assets/svg/icon-instagram.svg

<svg fill="none" height="20" viewBox="0 0 20 20" width="20" xmlns="http://www.w3.org/2000/svg" xmlns:xlink="http://www.w3.org/1999/xlink"><linearGradient id="a" gradientUnits="userSpaceOnUse" x1="5.7525" x2="20.1969" y1="22.0995" y2="2.09951"><stop offset=".0001" stop-color="#f8d20d"/><stop offset=".316568" stop-color="#e31333"/><stop offset=".654158" stop-color="#b03a98"/><stop offset="1" stop-color="#8537b1"/></linearGradient><path d="m14.4444-.0000001c3.0683-.00000002 5.5556 2.4873101 5.5556 5.5555601v8.88884c0 3.0683-2.4873 5.5556-5.5556 5.5556h-8.88884c-3.06825 0-5.55555988-2.4873-5.5555599-5.5556l-.00000006-8.88884c-.00000002-3.06825 2.48730996-5.55556002 5.55555996-5.55556004zm-4.4444 5.5555601c-2.4546 0-4.44444 1.98984-4.44444 4.44444s1.98984 4.4444 4.44444 4.4444 4.4444-1.9898 4.4444-4.4444-1.9898-4.44444-4.4444-4.44444zm0 2.22222c1.2273 0 2.2222.99489 2.2222 2.22222 0 1.2273-.9949 2.2222-2.2222 2.2222-1.22733 0-2.22222-.9949-2.22222-2.2222 0-1.22733.99489-2.22222 2.22222-2.22222zm5-3.88889c-.6137 0-1.1111.49747-1.1111 1.11111s.4974 1.11111 1.1111 1.11111 1.1111-.49747 1.1111-1.11111-.4974-1.11111-1.1111-1.11111z" fill="url(#a)"/></svg>

<svg width="20" height="20" viewBox="0 0 20 20" fill="none" xmlns="http://www.w3.org/2000/svg">
<path d="M14.4444 -9.82027e-08C17.5127 -1.19063e-07 20 2.48731 20 5.55556L20 14.4444C20 17.5127 17.5127 20 14.4444 20L5.55556 20C2.48731 20 1.19063e-07 17.5127 9.82027e-08 14.4444L3.77703e-08 5.55556C1.69104e-08 2.48731 2.48731 -1.69104e-08 5.55556 -3.77703e-08L14.4444 -9.82027e-08ZM10 5.55556C7.5454 5.55556 5.55556 7.5454 5.55556 10C5.55556 12.4546 7.5454 14.4444 10 14.4444C12.4546 14.4444 14.4444 12.4546 14.4444 10C14.4444 7.5454 12.4546 5.55556 10 5.55556ZM10 7.77778C11.2273 7.77778 12.2222 8.77267 12.2222 10C12.2222 11.2273 11.2273 12.2222 10 12.2222C8.77267 12.2222 7.77778 11.2273 7.77778 10C7.77778 8.77267 8.77267 7.77778 10 7.77778ZM15 3.88889C14.3863 3.88889 13.8889 4.38636 13.8889 5C13.8889 5.61364 14.3863 6.11111 15 6.11111C15.6137 6.11111 16.1111 5.61364 16.1111 5C16.1111 4.38636 15.6137 3.88889 15 3.88889Z" fill="url(#paint0_linear_19_2650)"/>
<defs>
<linearGradient id="paint0_linear_19_2650" x1="5.7525" y1="22.0995" x2="20.1969" y2="2.09951" gradientUnits="userSpaceOnUse">
<stop offset="0.0001" stop-color="#F8D20D"/>
<stop offset="0.316568" stop-color="#E31333"/>
<stop offset="0.654158" stop-color="#B03A98"/>
<stop offset="1" stop-color="#8537B1"/>
</linearGradient>
</defs>
</svg>
